X:1
T:Title
L:1/8
M:4/4
K:Ab
V:1 treble nm="Grand Piano"
V:1
 z4 z2[Q:1/4=100] F2 | FEDC F3 G | F6 F2 | FEDC G3 A | GA/G/ F4 AA | A2 B2 c2 A2 | G2 F4 G2 | %7
 G2 A2 B2 G2 | F2 E4 FF | FEDC C2 B,D | C6 F2 | FEDC F3 G | F6 F2 | FEDC G3 A | GA/G/ F4 AA | %15
 A2 B2 c2 A2 | G2 F4 G2 | G2 A2 B2 G2 | F2 E4 FF | FEDC F2 =EF |[M:3/4] G6 |[M:1/4] AA | %22
[M:4/4] G2 F2 F2 F=E | G2 F4 AA | G2 F2 BAAG | G6 B2 | BA G2 A2 B2 | A2 G4 GG | A2 B2 c2 Bd | %29
 c6 A2 | G2 F2 F2 F=E | G2 F4 A2 | G2 F2 B2 AG | G6 B2 | BA G2 A2 B2 | c2 c2 dcBA | BAGC G3 A/G/ | %37
 F6 z2 |] %38

